X: 39281
T: Táimse Im' Chodladh
R: waltz
M: 3/4
K: Gmajor
G>F|G3A Bc|d2 f>edc|AFG>F D2|B3/2A/2G/2 A<d (3cAF|G>F G2 G>F|
G3A Bc|d2 f>edc|AFG>F D2|B3/2A/2G/2 A<d (3cAF|G>F G2 AB|
(3 cAd f2 (3def|g>fg>a dd/2e/2|(3fga g2 fe|d2 cAG>A|G4 z d/2e/2|
f>gaf gf/2e/2|d2 cAG>F|D4 E/2F/2G/2A/2|B3/2A/2G/2 A<d (3cAF|G>F G4||

